X:127
T:Place true Love thine arm around me
T:Cuir a chion d\`ilis tharam do lamh
R:Slow Air
S:Simon Fraser Collection
N:No.112
O:Scottish
M:6/8
L:1/8
Q:3/8=100
K:G
A|B2~d e2f|g>ba/g/ f2e|dBg f2e|^d>Be E2 E/F/|!
G>AB/c/ d>^cd|e>fg/a/ f2 e|dBA/G/ B2 A/F/|G>AF E2:|!
|:e|g2~a b2c'|bag fed|g>fg a>^ga|b^ab B2 g/a/|!
bc'/b/a/g/ ab/a/g/f/|e/d/c/B/g f2e|dBA/G/ B2 A/F/|G>AF E2:|!
|:e|e<B z/e/ e<B e/f/|gba/g/ f2e|dBd/e/4f/4 g2f|e>^de E2 E/F/|
G/F/G/A/B/c/ (3d/e/d/ (3c/d/c/ B|e/g/f/a/g/a/ b2 z/b/4e/4|
e/d/c/B/A/G/ A3/2B/4c/4 B/4c/4^d/4e/4|G>AF E2:|!
|:e/>f/|gEg aFa|bGb agf|e/B/g/B/a/B/ b/a/g/f/e/^d/|eEE E/^D/E/F/G/A/|!
B/b/a/g/f/e/ d/g/f/e/d/c/|B/A/G/A/B/g/ f2b|eBA/G/ B2 A/F/|G>AF E2:|

